X:35
T:Liam Childs
C:Liz Carroll
R:slip jig
M:9/8
L:1/8
K:Gmaj
B2B BAG Bdd | A2A AGA BGd | G2G GAG GED | BAA ABd edg |
B2B BAG Bdd | A2A AGA BGd | G2G GAG GED |1 BAA ABA G2A :|2 BAA ABA GB/c/d |:
ged B2B BAG | ged BAG E2G | ged B2A Bdg | e2d egb a2b |
ged B2B BAG | ged BAG E2G | A2A ABA AGE |1 edB ABA GB/c/d :|2 edB ABA G2A |]
